X: 4
T: Carolan's Draught
R: reel
M: 4/4
L: 1/8
K: Gmaj
D2 |: G>ABc defd | g2 fe d2 d2 | e2 ce d2 Bd | c2 Bc AcBA |
G>ABc defd | gfed ^cbag | gfed A2^c2 |1 d2 d2 D2 :|2 d6 f>g||
|:afga bagf | e/f/g fe ed=cB | edef gfga | bagf efga |
b3g a3f | g3e f3d | edef gfed | e2 e2 e3f |
gfed cBAG | e2 d2 d2 d2 | c2 B2 A2 G2 | FGAF DEFD |
EFGE FGAF | GABG ABcA | d2 g2 bagf |1 g2 g2 g2 fg:|2 g2 g2 g2 D2||


Tune 1421	Setting 20802

